public/icons/twitter.svg

<?xml version="1.0" encoding="UTF-8"?>
<svg width="26px" height="26px" viewBox="0 0 26 26" version="1.1" xmlns="http://www.w3.org/2000/svg" xmlns:xlink="http://www.w3.org/1999/xlink">
    <!-- Generator: Sketch 50.2 (55047) - http://www.bohemiancoding.com/sketch -->
    <title>twitter</title>
    <desc>Created with Sketch.</desc>
    <defs></defs>
    <g id="Page-1" stroke="none" stroke-width="1" fill="none" fill-rule="evenodd">
        <g id="twitter" fill="#FFFFFF" fill-rule="nonzero">
            <path d="M19.46,7.28306304e-16 L6.52,7.28306304e-16 C2.92138684,0.00550668626 0.00550668626,2.92138684 0,6.52 L0,19.52 C0.0274315433,23.1029825 2.93691658,25.9946179 6.52,26 L19.52,26 C23.1107807,25.9725091 26.0056043,23.0508815 26,19.46 L26,6.52 C25.9780675,2.92042909 23.0596212,0.0109076877 19.46,7.28306304e-16 Z M19.46,9.73 L19.46,10.16 C19.4602817,12.6562666 18.4591612,15.048311 16.680925,16.8002308 C14.9026889,18.5521506 12.4959849,19.5174976 10,19.48 C8.19000448,19.4867595 6.41622306,18.9730224 4.89,18 C5.15,18 5.4,18 5.67,18 C7.16223419,18.0132772 8.61479321,17.5196892 9.79,16.6 C8.37561454,16.5831002 7.12725167,15.6719157 6.68,14.33 C6.88427783,14.3697436 7.09189196,14.3898353 7.3,14.39 C7.60084102,14.3921681 7.90047618,14.3517678 8.19,14.27 C6.66427306,13.9526392 5.57050009,12.6083839 5.57,11.05 C6.0217923,11.3070617 6.53033511,11.4479418 7.05,11.46 C5.59406692,10.5233733 5.13165333,8.60765978 6,7.11 C7.7046071,9.15917995 10.1880503,10.4027143 12.85,10.54 C12.7856439,10.2953301 12.7553582,10.0429497 12.76,9.79 C12.7652348,8.91217787 13.1210623,8.07285034 13.7483257,7.45873325 C14.375589,6.84461615 15.2222639,6.50664339 16.1,6.52 C17.01496,6.51037738 17.8949546,6.87103093 18.54,7.52 C19.2825303,7.37679112 19.9936288,7.1025103 20.64,6.71 C20.3847923,7.47073445 19.86727,8.11586494 19.18,8.53 C19.8393074,8.44842923 20.4829326,8.26983166 21.09,8 C20.6493718,8.67188324 20.0902844,9.25807788 19.44,9.73 L19.46,9.73 Z" id="Shape"></path>
        </g>
    </g>
</svg>

<svg width="26" height="26" xmlns="http://www.w3.org/2000/svg"><path d="M19.46 0H6.52A6.53 6.53 0 0 0 0 6.52v13A6.53 6.53 0 0 0 6.52 26h13A6.53 6.53 0 0 0 26 19.46V6.52A6.56 6.56 0 0 0 19.46 0zm0 9.73v.43A9.32 9.32 0 0 1 10 19.48 9.44 9.44 0 0 1 4.89 18h.78a6.59 6.59 0 0 0 4.12-1.4 3.32 3.32 0 0 1-3.11-2.27c.204.04.412.06.62.06.3.002.6-.038.89-.12a3.29 3.29 0 0 1-2.62-3.22c.452.257.96.398 1.48.41A3.24 3.24 0 0 1 6 7.11a9.55 9.55 0 0 0 6.85 3.43 2.75 2.75 0 0 1-.09-.75 3.29 3.29 0 0 1 3.34-3.27 3.39 3.39 0 0 1 2.44 1 6.37 6.37 0 0 0 2.1-.81 3.38 3.38 0 0 1-1.46 1.82A6.74 6.74 0 0 0 21.09 8a6.63 6.63 0 0 1-1.65 1.73h.02z" fill="#FFF" fill-rule="nonzero"/></svg>
